X:1
T:The Twa Sisters
M:4/4
L:1/4
K:C
 D| G D G B/2B/2| c B/2B/2 A- B| d2 d B| d2| A2| d e d B/2A/2| B B/2A/2 G G|\
 A A D2| E G| D2| G2 A2| d d/2B/2 A G/2G/2| G B A A| G3||
